static/img/kroki/f0eee7812ed3ef531d56429e71a7f06f.svg

<?xml version="1.0" encoding="us-ascii" standalone="no"?><svg xmlns="http://www.w3.org/2000/svg" xmlns:xlink="http://www.w3.org/1999/xlink" contentStyleType="text/css" height="152px" preserveAspectRatio="none" style="width:497px;height:152px;" version="1.1" viewBox="0 0 497 152" width="497px" zoomAndPan="magnify"><defs/><g><!--class aws_cloudwatch_log_group--><g id="elem_aws_cloudwatch_log_group"><rect codeLine="23" fill="#3D176E" height="39.7891" id="aws_cloudwatch_log_group" rx="2.5" ry="2.5" style="stroke:#000D19;stroke-width:0.5;" width="270" x="146.5" y="7"/><ellipse cx="161.5" cy="26.8945" fill="#ADD1B2" rx="11" ry="11" style="stroke:#181818;stroke-width:1.0;"/><path d="M164.4688,32.5352 Q163.8906,32.832 163.25,32.9727 Q162.6094,33.1289 161.9063,33.1289 Q159.4063,33.1289 158.0781,31.4883 Q156.7656,29.832 156.7656,26.707 Q156.7656,23.582 158.0781,21.9258 Q159.4063,20.2695 161.9063,20.2695 Q162.6094,20.2695 163.25,20.4258 Q163.9063,20.582 164.4688,20.8789 L164.4688,23.5977 Q163.8438,23.0195 163.25,22.7539 Q162.6563,22.4727 162.0313,22.4727 Q160.6875,22.4727 160,23.5508 Q159.3125,24.6133 159.3125,26.707 Q159.3125,28.8008 160,29.8789 Q160.6875,30.9414 162.0313,30.9414 Q162.6563,30.9414 163.25,30.6758 Q163.8438,30.3945 164.4688,29.8164 L164.4688,32.5352 Z " fill="#000000"/><text fill="#D9B8FF" font-family="Helvetica" font-size="17" lengthAdjust="spacing" textLength="228" x="180.5" y="32.7798">aws_cloudwatch_log_group</text></g><!--class aws_cloudwatch_metric_filter--><g id="elem_aws_cloudwatch_metric_filter"><rect codeLine="26" fill="#3D176E" height="39.7891" id="aws_cloudwatch_metric_filter" rx="2.5" ry="2.5" style="stroke:#000D19;stroke-width:0.5;" width="291" x="7" y="106.79"/><ellipse cx="22" cy="126.6845" fill="#ADD1B2" rx="11" ry="11" style="stroke:#181818;stroke-width:1.0;"/><path d="M24.9688,132.3252 Q24.3906,132.622 23.75,132.7627 Q23.1094,132.9189 22.4063,132.9189 Q19.9063,132.9189 18.5781,131.2783 Q17.2656,129.622 17.2656,126.497 Q17.2656,123.372 18.5781,121.7158 Q19.9063,120.0595 22.4063,120.0595 Q23.1094,120.0595 23.75,120.2158 Q24.4063,120.372 24.9688,120.6689 L24.9688,123.3877 Q24.3438,122.8095 23.75,122.5439 Q23.1563,122.2627 22.5313,122.2627 Q21.1875,122.2627 20.5,123.3408 Q19.8125,124.4033 19.8125,126.497 Q19.8125,128.5908 20.5,129.6689 Q21.1875,130.7314 22.5313,130.7314 Q23.1563,130.7314 23.75,130.4658 Q24.3438,130.1845 24.9688,129.6064 L24.9688,132.3252 Z " fill="#000000"/><text fill="#D9B8FF" font-family="Helvetica" font-size="17" lengthAdjust="spacing" textLength="249" x="41" y="132.5698">aws_cloudwatch_metric_filter</text></g><!--class aws_kms_key--><g id="elem_aws_kms_key"><rect codeLine="29" fill="#3D176E" height="39.7891" id="aws_kms_key" rx="2.5" ry="2.5" style="stroke:#000D19;stroke-width:0.5;" width="158" x="332.5" y="106.79"/><ellipse cx="347.5" cy="126.6845" fill="#ADD1B2" rx="11" ry="11" style="stroke:#181818;stroke-width:1.0;"/><path d="M350.4688,132.3252 Q349.8906,132.622 349.25,132.7627 Q348.6094,132.9189 347.9063,132.9189 Q345.4063,132.9189 344.0781,131.2783 Q342.7656,129.622 342.7656,126.497 Q342.7656,123.372 344.0781,121.7158 Q345.4063,120.0595 347.9063,120.0595 Q348.6094,120.0595 349.25,120.2158 Q349.9063,120.372 350.4688,120.6689 L350.4688,123.3877 Q349.8438,122.8095 349.25,122.5439 Q348.6563,122.2627 348.0313,122.2627 Q346.6875,122.2627 346,123.3408 Q345.3125,124.4033 345.3125,126.497 Q345.3125,128.5908 346,129.6689 Q346.6875,130.7314 348.0313,130.7314 Q348.6563,130.7314 349.25,130.4658 Q349.8438,130.1845 350.4688,129.6064 L350.4688,132.3252 Z " fill="#000000"/><text fill="#D9B8FF" font-family="Helvetica" font-size="17" lengthAdjust="spacing" textLength="116" x="366.5" y="132.5698">aws_kms_key</text></g><!--link aws_cloudwatch_log_group to aws_cloudwatch_metric_filter--><g id="link_aws_cloudwatch_log_group_aws_cloudwatch_metric_filter"><path codeLine="32" d="M256.01,47.22 C233.4,64.36 205.3106,85.6443 182.7106,102.7843 " fill="none" id="aws_cloudwatch_log_group-to-aws_cloudwatch_metric_filter" style="stroke:#1A83AF;stroke-width:2.0;"/><polygon fill="#1A83AF" points="177.93,106.41,187.5181,104.1586,181.9139,103.3886,182.6838,97.7844,177.93,106.41" style="stroke:#1A83AF;stroke-width:2.0;"/></g><!--link aws_cloudwatch_log_group to aws_kms_key--><g id="link_aws_cloudwatch_log_group_aws_kms_key"><path codeLine="33" d="M307.18,47.22 C329.97,64.36 358.2956,85.6626 381.0756,102.8026 " fill="none" id="aws_cloudwatch_log_group-to-aws_kms_key" style="stroke:#1A83AF;stroke-width:2.0;"/><polygon fill="#1A83AF" points="385.87,106.41,381.0833,97.8026,381.8746,103.4038,376.2734,104.1952,385.87,106.41" style="stroke:#1A83AF;stroke-width:2.0;"/></g><!--SRC=[bPBDIyD04CNl-IiMUYuq5crx4MAXwAM8zIOIfhkppPBz2BDRGnN_TnDRPKtwWOUzpFlntfjX2oMGeQd2ZXaqQoIV-5BP2WWCouXSFNVQ4Hj82N8ywOeBPyD5O0a6sJtgDmoAGvTuBXGlBNhFhYBf3dYv8RUrOcyV2Anl9BGXekOQlCz28BNU1epAYDbwAcMNx9eEnYATt60FSoIG3iXeD1Bfh8jSZ3gxzo-nKk_8qlXeInUmLxCNyKsTRTaIKSdUeZ_woOwF88Io6tOTpPxsdSWY_Pcl2X2kRca9siSnFY2X2xiAvxsjS3OLSd8KVZW59xmz7OFQvroxhQWXy2BNRfEtTCK-akJpE6Em-IKybqetALskDCt3tNvyqdpuCaYpwJXRl0vlpzh_m-AGd7m1]--></g></svg>

<svg xmlns="http://www.w3.org/2000/svg" width="497" height="152" viewBox="0 0 497 152"><rect width="270" height="39.789" x="146.5" y="7" fill="#3D176E" rx="2.5" ry="2.5" style="stroke:#000d19;stroke-width:.5"/><circle cx="161.5" cy="26.895" r="11" fill="#ADD1B2" style="stroke:#181818;stroke-width:1"/><path d="M164.469 32.535q-.578.297-1.219.438-.64.156-1.344.156-2.5 0-3.828-1.64-1.312-1.657-1.312-4.782t1.312-4.781q1.328-1.656 3.828-1.656.703 0 1.344.156.656.156 1.219.453v2.719q-.625-.578-1.219-.844-.594-.281-1.219-.281-1.344 0-2.031 1.078-.687 1.062-.687 3.156t.687 3.172q.688 1.062 2.031 1.062.625 0 1.219-.265.594-.281 1.219-.86z"/><text x="180.5" y="32.78" fill="#D9B8FF" font-family="Helvetica" font-size="17" textLength="228">aws_cloudwatch_log_group</text><rect width="291" height="39.789" x="7" y="106.79" fill="#3D176E" rx="2.5" ry="2.5" style="stroke:#000d19;stroke-width:.5"/><circle cx="22" cy="126.684" r="11" fill="#ADD1B2" style="stroke:#181818;stroke-width:1"/><path d="M24.969 132.325q-.578.297-1.219.438-.64.156-1.344.156-2.5 0-3.828-1.64-1.312-1.657-1.312-4.782t1.312-4.781q1.328-1.656 3.828-1.656.703 0 1.344.156.656.156 1.219.453v2.719q-.625-.579-1.219-.844-.594-.281-1.219-.281-1.343 0-2.031 1.078-.687 1.062-.687 3.156t.687 3.172q.688 1.062 2.031 1.062.625 0 1.219-.265.594-.281 1.219-.86z"/><text x="41" y="132.57" fill="#D9B8FF" font-family="Helvetica" font-size="17" textLength="249">aws_cloudwatch_metric_filter</text><rect width="158" height="39.789" x="332.5" y="106.79" fill="#3D176E" rx="2.5" ry="2.5" style="stroke:#000d19;stroke-width:.5"/><circle cx="347.5" cy="126.684" r="11" fill="#ADD1B2" style="stroke:#181818;stroke-width:1"/><path d="M350.469 132.325q-.578.297-1.219.438-.64.156-1.344.156-2.5 0-3.828-1.64-1.312-1.657-1.312-4.782t1.312-4.781q1.328-1.656 3.828-1.656.703 0 1.344.156.656.156 1.219.453v2.719q-.625-.579-1.219-.844-.594-.281-1.219-.281-1.344 0-2.031 1.078-.687 1.062-.687 3.156t.687 3.172q.688 1.062 2.031 1.062.625 0 1.219-.265.594-.281 1.219-.86z"/><text x="366.5" y="132.57" fill="#D9B8FF" font-family="Helvetica" font-size="17" textLength="116">aws_kms_key</text><path fill="none" d="M256.01 47.22c-22.61 17.14-50.7 38.424-73.3 55.564" style="stroke:#1a83af;stroke-width:2"/><path fill="#1A83AF" d="m177.93 106.41 9.588-2.251-5.604-.77.77-5.605z" style="stroke:#1a83af;stroke-width:2"/><path fill="none" d="M307.18 47.22c22.79 17.14 51.116 38.443 73.896 55.583" style="stroke:#1a83af;stroke-width:2"/><path fill="#1A83AF" d="m385.87 106.41-4.787-8.607.792 5.6-5.602.792z" style="stroke:#1a83af;stroke-width:2"/></svg>
